Catalina-light/actions/16/boundingbox_top_right.svg

<svg xmlns="http://www.w3.org/2000/svg" width="16" height="16" viewBox="0 0 16 16">
 <defs>
  <style id="current-color-scheme" type="text/css">
   .ColorScheme-Text { color:#5c616c; } .ColorScheme-Highlight { color:#5294e2; }
  </style>
 </defs>
 <path style="fill:currentColor" class="ColorScheme-Text" d="M 11 0 C 10.71058 0.000357 10.421729 0.025841875 10.136719 0.076171875 C 10.122869 0.078571875 10.109523 0.081484375 10.095703 0.083984375 C 9.8550531 0.12968437 9.6180788 0.1930075 9.3867188 0.2734375 C 9.3423627 0.2885975 9.2977193 0.30199937 9.2539062 0.31835938 C 9.0295262 0.40284938 8.8115125 0.50337063 8.6015625 0.61914062 C 8.5545725 0.64490063 8.5089806 0.67198875 8.4628906 0.69921875 C 8.2533406 0.82121875 8.0529412 0.958295 7.8632812 1.109375 C 7.8362513 1.131175 7.8117363 1.1553744 7.7851562 1.1777344 C 7.6074363 1.3273844 7.4403662 1.4892294 7.2851562 1.6621094 C 7.2622963 1.6875394 7.2371937 1.7104181 7.2148438 1.7363281 C 7.0575437 1.9209281 6.9139563 2.1167656 6.7851562 2.3222656 C 6.7550562 2.3694656 6.7257656 2.4165437 6.6972656 2.4648438 C 6.5700656 2.6789438 6.4591344 2.9022125 6.3652344 3.1328125 C 6.3546344 3.1591625 6.3461075 3.1863106 6.3359375 3.2128906 C 6.2364375 3.4683906 6.1579625 3.7316 6.1015625 4 L 0 4 L 0 6 L 6.1054688 6 C 6.1060108 6.0027 6.1068219 6.0052125 6.1074219 6.0078125 C 6.1556819 6.2439925 6.2209544 6.476365 6.3027344 6.703125 L 6.3066406 6.7148438 C 6.3073466 6.7167438 6.3077938 6.7187031 6.3085938 6.7207031 C 6.3904337 6.9408131 6.4876794 7.1548881 6.5996094 7.3613281 C 6.6094094 7.3796381 6.6188663 7.3978356 6.6289062 7.4160156 C 6.7299162 7.5972956 6.8421037 7.7721131 6.9648438 7.9394531 C 6.9833238 7.9648531 7.0005813 7.990595 7.0195312 8.015625 C 7.1566313 8.198155 7.3060669 8.3710831 7.4667969 8.5332031 C 7.6231369 8.6878831 7.7895138 8.8320737 7.9648438 8.9648438 C 7.9943238 8.9874637 8.0227444 9.0112331 8.0527344 9.0332031 C 8.4154644 9.2981031 8.8123219 9.512945 9.2324219 9.671875 C 9.2686769 9.685615 9.3051329 9.6980175 9.3417969 9.7109375 C 9.5566969 9.7884375 9.7766 9.8510375 10 9.8984375 L 10 16 L 12 16 L 12 9.8945312 C 12.0021 9.8941133 12.003759 9.8930781 12.005859 9.8925781 C 12.561829 9.7777081 13.094178 9.5690006 13.580078 9.2753906 C 13.592058 9.2681906 13.605277 9.2631794 13.617188 9.2558594 C 13.840727 9.1171994 14.052973 8.9611225 14.251953 8.7890625 C 14.274463 8.7697425 14.296199 8.7501687 14.318359 8.7304688 C 14.515929 8.5564087 14.699437 8.3670225 14.867188 8.1640625 C 14.871287 8.1589625 14.874786 8.1534975 14.878906 8.1484375 C 15.044906 7.9437675 15.194452 7.7262869 15.326172 7.4980469 C 15.334972 7.4828169 15.344856 7.468445 15.353516 7.453125 C 15.479596 7.227495 15.587994 6.99239 15.677734 6.75 C 15.690224 6.71673 15.703044 6.6839706 15.714844 6.6503906 C 15.799054 6.4116006 15.864989 6.1667487 15.912109 5.9179688 C 15.920109 5.8753388 15.924751 5.8320325 15.931641 5.7890625 C 15.974641 5.5282625 15.998 5.2644 16 5 C 15.999 4.8552 15.991516 4.7106063 15.978516 4.5664062 C 15.970516 4.4795063 15.959266 4.3941937 15.947266 4.3085938 C 15.937266 4.2321938 15.926109 4.1559781 15.912109 4.0800781 C 15.902109 4.0264781 15.888953 3.974775 15.876953 3.921875 C 15.815953 3.642975 15.731047 3.3698687 15.623047 3.1054688 C 15.605047 3.0614687 15.584453 3.0198625 15.564453 2.9765625 C 15.453453 2.7210625 15.319969 2.4754875 15.167969 2.2421875 C 15.144969 2.2082875 15.118703 2.1778313 15.095703 2.1445312 C 14.931703 1.9078313 14.748875 1.6855688 14.546875 1.4804688 C 14.531875 1.4656688 14.516953 1.4521 14.501953 1.4375 C 14.288953 1.2256 14.056594 1.0334013 13.808594 0.86328125 C 13.792454 0.85229125 13.774093 0.84478438 13.757812 0.83398438 C 13.506422 0.66638438 13.240361 0.52191375 12.962891 0.40234375 L 12.947266 0.39453125 C 12.939666 0.39133125 12.931448 0.38991875 12.923828 0.38671875 C 12.636878 0.26683875 12.339356 0.173985 12.035156 0.109375 C 12.021276 0.106475 12.008061 0.10240938 11.994141 0.099609375 C 11.832001 0.066899375 11.66741 0.042000625 11.5 0.025390625 C 11.334 0.008581625 11.167 0.000103 11 0 z"/>
</svg>

<svg width="16" height="16" viewBox="0 0 16 16" xmlns="http://www.w3.org/2000/svg">
<defs>
<style id="current-color-scheme" type="text/css">.ColorScheme-Text { color:#5c616c; } .ColorScheme-Highlight { color:#5294e2; }</style>
</defs>
<path class="ColorScheme-Text" d="m11 0c-0.28942 3.57e-4 -0.57827 0.025842-0.86328 0.076172-0.01385 0.0024-0.027196 0.0053125-0.041016 0.0078125-0.24065 0.0457-0.47762 0.10902-0.70898 0.18945-0.044356 0.01516-0.089 0.028562-0.13281 0.044922-0.22438 0.08449-0.44239 0.18501-0.65234 0.30078-0.04699 0.02576-0.092582 0.052848-0.13867 0.080078-0.20955 0.122-0.40995 0.25908-0.59961 0.41016-0.02703 0.0218-0.051545 0.045999-0.078125 0.068359-0.17772 0.14965-0.34479 0.3115-0.5 0.48438-0.02286 0.02543-0.047962 0.048309-0.070312 0.074219-0.1573 0.1846-0.30089 0.38044-0.42969 0.58594-0.0301 0.0472-0.059391 0.094278-0.087891 0.14258-0.1272 0.2141-0.23813 0.43737-0.33203 0.66797-0.0106 0.02635-0.019127 0.053498-0.029297 0.080078-0.0995 0.2555-0.17798 0.51871-0.23438 0.78711h-6.1016v2h6.1055c5.42e-4 0.0027 0.0013531 0.0052125 0.0019531 0.0078125 0.04826 0.23618 0.11353 0.46855 0.19531 0.69531l0.0039062 0.011719c7.06e-4 0.0019 0.0011532 0.0038593 0.0019532 0.0058593 0.08184 0.22011 0.17909 0.43418 0.29102 0.64062 0.0098 0.01831 0.019257 0.036508 0.029297 0.054688 0.10101 0.18128 0.2132 0.3561 0.33594 0.52344 0.01848 0.0254 0.035738 0.051142 0.054687 0.076172 0.1371 0.18253 0.28654 0.35546 0.44727 0.51758 0.15634 0.15468 0.32272 0.29887 0.49805 0.43164 0.02948 0.02262 0.057901 0.046389 0.087891 0.068359 0.36273 0.2649 0.75959 0.47974 1.1797 0.63867 0.036255 0.01374 0.072711 0.026142 0.10938 0.039062 0.2149 0.0775 0.4348 0.1401 0.6582 0.1875v6.1016h2v-6.1055c0.0021-4.179e-4 0.003759-0.0014531 0.005859-0.0019531 0.55597-0.11487 1.0883-0.32358 1.5742-0.61719 0.01198-0.0072 0.025199-0.012211 0.03711-0.019531 0.22354-0.13866 0.43578-0.29474 0.63476-0.4668 0.02251-0.01932 0.044246-0.038894 0.066406-0.058594 0.19757-0.17406 0.38108-0.36345 0.54883-0.56641 0.004099-0.0051 0.007598-0.010565 0.011718-0.015625 0.166-0.20467 0.31555-0.42215 0.44727-0.65039 0.0088-0.01523 0.018684-0.029602 0.027344-0.044922 0.12608-0.22563 0.23448-0.46074 0.32422-0.70312 0.01249-0.03327 0.02531-0.066029 0.03711-0.099609 0.08421-0.23879 0.15014-0.48364 0.19726-0.73242 8e-3 -0.04263 0.012642-0.085936 0.019532-0.12891 0.043-0.2608 0.066359-0.52466 0.068359-0.78906-1e-3 -0.1448-0.008484-0.28939-0.021484-0.43359-8e-3 -0.0869-0.01925-0.17221-0.03125-0.25781-0.01-0.0764-0.021157-0.15262-0.035157-0.22852-0.01-0.0536-0.023156-0.1053-0.035156-0.1582-0.061-0.2789-0.14591-0.55201-0.25391-0.81641-0.018-0.044-0.038594-0.085606-0.058594-0.12891-0.111-0.2555-0.24448-0.50108-0.39648-0.73438-0.023-0.0339-0.049266-0.064356-0.072266-0.097656-0.164-0.2367-0.34683-0.45896-0.54883-0.66406-0.015-0.0148-0.029922-0.028369-0.044922-0.042969-0.213-0.2119-0.44536-0.4041-0.69336-0.57422-0.01614-0.01099-0.034501-0.018497-0.050782-0.029297-0.25139-0.1676-0.51745-0.31207-0.79492-0.43164l-0.015625-0.0078125c-0.0076-0.0032-0.015818-0.0046125-0.023438-0.0078125-0.28695-0.11988-0.58447-0.21273-0.88867-0.27734-0.01388-0.0029-0.027095-0.0069656-0.041015-0.0097656-0.16214-0.03271-0.32673-0.057609-0.49414-0.074219-0.166-0.016809-0.333-0.025288-0.5-0.025391z" fill="currentColor"/>
</svg>
